docs/assets/images/money-receipt.svg

<svg xmlns="http://www.w3.org/2000/svg" width="68" height="68" fill="none" viewBox="0 0 68 68"><path fill="#FFFAF0" d="M58.3966 47.3367L62.5266 46.01L35.54 25.88C35.54 25.88 33.6233 22.12 33.3266 20.4234C33.03 18.7267 33.0333 17.77 33.0333 17.77L30.3066 22.0467L26.7666 19.17L24.9233 23.74L21.31 21.2334L19.3933 24.8467L15.6333 22.7834L13.7166 26.25L10.4 24.3334L8.7033 27.5034L5.5333 26.62C5.5333 26.62 5.45997 32.37 9.36663 35.7634C13.2733 39.1567 35.0266 54.9334 35.0266 54.9334L58.4 47.34L58.3966 47.3367Z"/><path stroke="#002140" stroke-linecap="round" stroke-linejoin="round" d="M8.03707 32.3291C6.56551 31.0988 3.77969 27.3867 4.01388 21.6263L8.03707 23.8738L9.76728 20.2876L13.378 22.4582L15.0838 18.6237L19.093 21.0076L20.977 16.8306L24.7485 19.1725L26.8073 15.1004C26.8073 15.1004 29.9951 17.3305 30.3446 17.4912C30.6522 15.3661 33.2423 12 33.2423 12"/><path stroke="#002140" stroke-linecap="round" stroke-linejoin="round" d="M37.4332 23.1503C36.2168 22.3393 34.1685 20.5427 33.2388 12"/><path stroke="#002140" stroke-linecap="round" stroke-linejoin="round" d="M36.86 22.7239L64.4001 43.2173L35.5772 52.8261L8.03711 32.3292"/><path fill="#02B368" d="M25.8532 28.3096L5.76172 40.3861L37.6361 55.8776L58.0317 43.4411L25.8532 28.3096Z"/><path fill="#FED604" d="M26.145 34.4985C27.5163 34.1997 28.4667 33.2175 28.2678 32.3046C28.0689 31.3917 26.7961 30.8938 25.4248 31.1925C24.0535 31.4912 23.1031 32.4735 23.302 33.3864C23.5009 34.2993 24.7737 34.7972 26.145 34.4985Z"/><path fill="#FED604" d="M15.4157 41.1697C16.6587 40.8989 17.5052 39.9393 17.3063 39.0264C17.1074 38.1134 15.9385 37.5929 14.6955 37.8637C13.4525 38.1345 12.6061 39.0941 12.8049 40.007C13.0038 40.9199 14.1727 41.4405 15.4157 41.1697Z"/><path fill="#FED604" d="M48.9597 45.9583C50.2027 45.6875 51.0491 44.7279 50.8502 43.8149C50.6513 42.902 49.4824 42.3815 48.2394 42.6523C46.9964 42.9231 46.15 43.8826 46.3489 44.7956C46.5478 45.7085 47.7166 46.229 48.9597 45.9583Z"/><path stroke="#002140" stroke-linecap="round" stroke-linejoin="round" d="M57.815 43.7766L25.647 28.0264L5.42969 40.4L37.7759 55.8461L57.815 43.7766Z"/><path stroke="#002140" stroke-linecap="round" stroke-linejoin="round" d="M15.4419 41.2798C16.8792 40.9667 17.8541 39.8398 17.6195 38.7628C17.3848 37.6857 16.0295 37.0665 14.5922 37.3796C13.1549 37.6927 12.18 38.8196 12.4146 39.8967C12.6492 40.9737 14.0046 41.5929 15.4419 41.2798Z"/><path stroke="#002140" stroke-linecap="round" stroke-linejoin="round" d="M48.8349 46.199C50.2722 45.8859 51.2472 44.759 51.0125 43.6819C50.7779 42.6049 49.4225 41.9857 47.9853 42.2988C46.548 42.6119 45.573 43.7388 45.8077 44.8158C46.0423 45.8929 47.3976 46.5121 48.8349 46.199Z"/><path stroke="#002140" stroke-linecap="round" stroke-linejoin="round" d="M26.1513 34.7117C27.5886 34.3986 28.5636 33.2717 28.3289 32.1946C28.0943 31.1176 26.7389 30.4984 25.3017 30.8115C23.8644 31.1246 22.8894 32.2515 23.1241 33.3285C23.3587 34.4056 24.7141 35.0248 26.1513 34.7117Z"/><path fill="#02B368" d="M32.3125 23.2341L10.1099 30.7597L37.9541 52.6792L60.5342 44.8705L32.3125 23.2341Z"/><path fill="#FED604" d="M31.278 29.3476C32.6814 29.3476 33.8191 28.5902 33.8191 27.6559C33.8191 26.7215 32.6814 25.9641 31.278 25.9641C29.8745 25.9641 28.7368 26.7215 28.7368 27.6559C28.7368 28.5902 29.8745 29.3476 31.278 29.3476Z"/><path fill="#FED604" d="M19.3762 33.5806C20.6484 33.5806 21.6797 32.8231 21.6797 31.8888C21.6797 30.9544 20.6484 30.197 19.3762 30.197C18.104 30.197 17.0728 30.9544 17.0728 31.8888C17.0728 32.8231 18.104 33.5806 19.3762 33.5806Z"/><path fill="#FED604" d="M39.2717 49.1977C40.5439 49.1977 41.5752 48.4403 41.5752 47.506C41.5752 46.5716 40.5439 45.8142 39.2717 45.8142C37.9996 45.8142 36.9683 46.5716 36.9683 47.506C36.9683 48.4403 37.9996 49.1977 39.2717 49.1977Z"/><path fill="#FED604" d="M51.1316 45.3984C52.4037 45.3984 53.435 44.641 53.435 43.7067C53.435 42.7723 52.4037 42.0149 51.1316 42.0149C49.8594 42.0149 48.8281 42.7723 48.8281 43.7067C48.8281 44.641 49.8594 45.3984 51.1316 45.3984Z"/><path fill="#FED604" d="M39.5551 35.2757C39.5551 35.2757 33.0642 30.9484 29.9603 32.455C26.8564 33.9615 29.4779 38.9424 31.0893 40.1693C32.7007 41.3961 37.769 44.2134 40.7785 42.8048C43.788 41.3961 41.0616 36.0307 39.5551 35.2792V35.2757Z"/><path stroke="#002140" stroke-linecap="round" stroke-linejoin="round" d="M60.2511 45.1536L32.1727 22.916L9.78125 30.7037L38.1008 52.6792L60.2511 45.1536Z"/><path stroke="#002140" stroke-linecap="round" stroke-linejoin="round" d="M19.3793 33.6958C20.8503 33.6958 22.0428 32.8022 22.0428 31.7C22.0428 30.5977 20.8503 29.7041 19.3793 29.7041C17.9083 29.7041 16.7158 30.5977 16.7158 31.7C16.7158 32.8022 17.9083 33.6958 19.3793 33.6958Z"/><path stroke="#002140" stroke-linecap="round" stroke-linejoin="round" d="M39.2719 49.502C40.7429 49.502 41.9354 48.6084 41.9354 47.5061C41.9354 46.4038 40.7429 45.5103 39.2719 45.5103C37.8009 45.5103 36.6084 46.4038 36.6084 47.5061C36.6084 48.6084 37.8009 49.502 39.2719 49.502Z"/><path stroke="#002140" stroke-linecap="round" stroke-linejoin="round" d="M50.9569 45.6079C52.4279 45.6079 53.6204 44.7144 53.6204 43.6121C53.6204 42.5098 52.4279 41.6162 50.9569 41.6162C49.4859 41.6162 48.2935 42.5098 48.2935 43.6121C48.2935 44.7144 49.4859 45.6079 50.9569 45.6079Z"/><path stroke="#002140" stroke-linecap="round" stroke-linejoin="round" d="M31.2397 29.5572C32.7107 29.5572 33.9031 28.6636 33.9031 27.5613C33.9031 26.459 32.7107 25.5654 31.2397 25.5654C29.7687 25.5654 28.5762 26.459 28.5762 27.5613C28.5762 28.6636 29.7687 29.5572 31.2397 29.5572Z"/><path stroke="#002140" stroke-linecap="round" stroke-linejoin="round" d="M41.78 41.8242C43.1151 39.7244 41.2156 36.1261 37.5372 33.7873C33.8589 31.4484 29.7947 31.2546 28.4595 33.3544C27.1243 35.4543 29.0239 39.0525 32.7022 41.3914C36.3806 43.7302 40.4448 43.924 41.78 41.8242Z"/><path fill="#FED604" d="M33.6685 30.6338C33.6685 30.6338 35.0491 33.465 44.4203 33.1749C53.7914 32.8848 54.8784 31.0672 54.8784 30.487C54.8784 29.9067 50.5931 27.9458 44.9271 28.0157C39.2611 28.0856 33.8852 28.7428 33.6685 30.6303V30.6338Z"/><path fill="#FFED8F" d="M34.4551 29.7668C35.3639 30.4065 36.5628 30.4694 37.6603 30.3051C38.7579 30.1408 39.8205 29.7738 40.925 29.6375C42.2008 29.4802 43.4906 29.634 44.7734 29.634C45.2908 29.634 45.8291 29.6026 46.2904 29.3649C46.7518 29.1272 47.1154 28.6308 47.0489 28.117C47.0489 28.117 43.1586 27.9772 40.1945 28.2044C37.2269 28.4316 34.4551 29.7633 34.4551 29.7633V29.7668Z"/><path fill="#D08000" d="M33.8149 31.144V34.2689C33.8149 34.2689 37.7368 36.3766 44.7834 36.3766C51.8301 36.3766 54.9515 34.1256 54.9515 34.1256V31.0007C54.9515 31.0007 51.6833 33.472 44.4199 33.1784C37.1565 32.8847 34.6853 31.7243 33.8149 31.144Z"/><path stroke="#002140" stroke-linecap="round" stroke-linejoin="round" d="M44.3472 33.056C50.2041 33.056 54.9522 31.9496 54.9522 30.5848C54.9522 29.2199 50.2041 28.1135 44.3472 28.1135C38.4902 28.1135 33.7422 29.2199 33.7422 30.5848C33.7422 31.9496 38.4902 33.056 44.3472 33.056Z"/><path stroke="#002140" stroke-linecap="round" stroke-linejoin="round" d="M33.7422 30.5847V33.8284C33.7422 35.1916 38.4889 36.2997 44.3472 36.2997C50.2054 36.2997 54.9522 35.1951 54.9522 33.8284V30.5847"/><path stroke="#D08000" stroke-miterlimit="10" d="M44.3958 31.3154C46.6428 31.3154 48.4644 30.9477 48.4644 30.494C48.4644 30.0404 46.6428 29.6726 44.3958 29.6726C42.1487 29.6726 40.3271 30.0404 40.3271 30.494C40.3271 30.9477 42.1487 31.3154 44.3958 31.3154Z"/><path fill="#002140" d="M10.7039 31.7175L9.19385 32.7626L12.6752 35.545L14.4125 34.3845L10.7039 31.7175Z"/><path fill="#002140" d="M53.9629 35.0801L56.0496 36.9361C56.0496 36.9361 52.3375 38.0966 51.1771 38.0966L49.0903 36.2405L53.9629 35.0801Z"/></svg>

<svg xmlns="http://www.w3.org/2000/svg" width="68" height="68" fill="none" viewBox="0 0 68 68">
  <path fill="#FFFAF0" d="m58.397 47.337 4.13-1.327L35.54 25.88s-1.917-3.76-2.213-5.457c-.297-1.696-.294-2.653-.294-2.653l-2.726 4.277-3.54-2.877-1.844 4.57-3.613-2.507-1.917 3.614-3.76-2.064-1.916 3.467-3.317-1.917-1.697 3.17-3.17-.883s-.073 5.75 3.834 9.143 25.66 19.17 25.66 19.17L58.4 47.34z"/>
  <path stroke="#002140" stroke-linecap="round" stroke-linejoin="round" d="M8.037 32.33c-1.471-1.231-4.257-4.943-4.023-10.704l4.023 2.248 1.73-3.586 3.611 2.17 1.706-3.834 4.009 2.384 1.884-4.177 3.771 2.342 2.06-4.073s3.187 2.23 3.537 2.391C30.652 15.366 33.242 12 33.242 12"/>
  <path stroke="#002140" stroke-linecap="round" stroke-linejoin="round" d="M37.433 23.15c-1.216-.81-3.264-2.607-4.194-11.15"/>
  <path stroke="#002140" stroke-linecap="round" stroke-linejoin="round" d="M36.86 22.724 64.4 43.217l-28.823 9.61-27.54-20.498"/>
  <path fill="#02B368" d="M25.853 28.31 5.762 40.386l31.874 15.492L58.032 43.44z"/>
  <path fill="#FED604" d="M26.145 34.499c1.371-.3 2.322-1.282 2.123-2.194-.2-.913-1.472-1.411-2.843-1.113-1.372.3-2.322 1.282-2.123 2.194.199.913 1.472 1.411 2.843 1.112M15.416 41.17c1.243-.271 2.09-1.23 1.89-2.144-.199-.913-1.368-1.433-2.61-1.162-1.243.27-2.09 1.23-1.891 2.143s1.368 1.434 2.61 1.163m33.545 4.788c1.243-.27 2.09-1.23 1.89-2.143s-1.368-1.433-2.61-1.163c-1.244.271-2.09 1.23-1.891 2.144.199.913 1.368 1.433 2.61 1.162"/>
  <path stroke="#002140" stroke-linecap="round" stroke-linejoin="round" d="m57.815 43.777-32.168-15.75L5.43 40.4l32.346 15.446z"/>
  <path stroke="#002140" stroke-linecap="round" stroke-linejoin="round" d="M15.442 41.28c1.437-.313 2.412-1.44 2.177-2.517s-1.59-1.697-3.027-1.383c-1.437.313-2.412 1.44-2.177 2.517s1.59 1.696 3.027 1.383m33.393 4.919c1.437-.313 2.412-1.44 2.178-2.517-.235-1.077-1.59-1.696-3.028-1.383s-2.412 1.44-2.177 2.517 1.59 1.696 3.027 1.383M26.151 34.712c1.438-.313 2.413-1.44 2.178-2.517s-1.59-1.697-3.027-1.384-2.413 1.44-2.178 2.517c.235 1.078 1.59 1.697 3.027 1.384"/>
  <path fill="#02B368" d="M32.313 23.234 10.11 30.76l27.844 21.92 22.58-7.81z"/>
  <path fill="#FED604" d="M31.278 29.348c1.403 0 2.541-.758 2.541-1.692s-1.138-1.692-2.541-1.692-2.541.758-2.541 1.692 1.138 1.692 2.541 1.692M19.376 33.58c1.272 0 2.304-.757 2.304-1.691 0-.935-1.032-1.692-2.304-1.692s-2.303.757-2.303 1.692 1.031 1.692 2.303 1.692m19.896 15.617c1.272 0 2.303-.758 2.303-1.692s-1.031-1.692-2.303-1.692-2.304.758-2.304 1.692 1.032 1.692 2.304 1.692m11.86-3.8c1.272 0 2.303-.757 2.303-1.691 0-.935-1.031-1.692-2.303-1.692s-2.304.757-2.304 1.692 1.031 1.691 2.304 1.691M39.555 35.276s-6.49-4.328-9.595-2.821c-3.104 1.507-.482 6.487 1.13 7.714 1.61 1.227 6.679 4.044 9.689 2.636 3.009-1.409.283-6.774-1.224-7.526z"/>
  <path stroke="#002140" stroke-linecap="round" stroke-linejoin="round" d="M60.251 45.154 32.173 22.916 9.78 30.704 38.1 52.679z"/>
  <path stroke="#002140" stroke-linecap="round" stroke-linejoin="round" d="M19.38 33.696c1.47 0 2.663-.894 2.663-1.996s-1.193-1.996-2.664-1.996c-1.47 0-2.663.894-2.663 1.996s1.192 1.996 2.663 1.996m19.893 15.806c1.47 0 2.663-.894 2.663-1.996s-1.192-1.996-2.663-1.996-2.664.894-2.664 1.996 1.193 1.996 2.664 1.996m11.685-3.894c1.47 0 2.663-.894 2.663-1.996s-1.192-1.996-2.663-1.996-2.663.894-2.663 1.996 1.192 1.996 2.663 1.996M31.24 29.557c1.47 0 2.663-.893 2.663-1.996s-1.192-1.996-2.663-1.996-2.664.894-2.664 1.996c0 1.103 1.193 1.996 2.664 1.996m10.54 12.267c1.335-2.1-.564-5.698-4.243-8.037-3.678-2.339-7.742-2.532-9.077-.433-1.336 2.1.564 5.699 4.242 8.037 3.679 2.34 7.743 2.533 9.078.433"/>
  <path fill="#FED604" d="M33.669 30.634s1.38 2.831 10.751 2.54 10.458-2.107 10.458-2.687-4.285-2.541-9.95-2.471c-5.667.07-11.043.727-11.26 2.614z"/>
  <path fill="#FFED8F" d="M34.455 29.767c.909.64 2.108.702 3.205.538 1.098-.164 2.16-.531 3.265-.668 1.276-.157 2.566-.003 3.848-.003.518 0 1.056-.031 1.517-.27.462-.237.825-.733.759-1.247 0 0-3.89-.14-6.855.087-2.967.228-5.739 1.56-5.739 1.56z"/>
  <path fill="#D08000" d="M33.815 31.144v3.125s3.922 2.108 10.968 2.108c7.047 0 10.169-2.251 10.169-2.251V31s-3.269 2.471-10.532 2.177c-7.264-.293-9.735-1.454-10.605-2.034"/>
  <path stroke="#002140" stroke-linecap="round" stroke-linejoin="round" d="M44.347 33.056c5.857 0 10.605-1.106 10.605-2.471s-4.748-2.472-10.605-2.472-10.605 1.107-10.605 2.472 4.748 2.471 10.605 2.471"/>
  <path stroke="#002140" stroke-linecap="round" stroke-linejoin="round" d="M33.742 30.585v3.243c0 1.364 4.747 2.472 10.605 2.472s10.605-1.105 10.605-2.472v-3.243"/>
  <path stroke="#D08000" stroke-miterlimit="10" d="M44.396 31.315c2.247 0 4.068-.367 4.068-.821s-1.821-.821-4.068-.821-4.069.367-4.069.821 1.822.821 4.069.821Z"/>
  <path fill="#002140" d="m10.704 31.718-1.51 1.045 3.481 2.782 1.737-1.16zm43.259 3.362 2.087 1.856s-3.712 1.16-4.873 1.16l-2.087-1.855z"/>
</svg>
